ES3T1/39/aimg/2_etiqueta2.svg

<svg clip-rule="evenodd" fill-rule="evenodd" stroke-linejoin="round" stroke-miterlimit="2" viewBox="0 0 622 104" xmlns="http://www.w3.org/2000/svg"><path d="m225.343 350.566h149v24.621h-149z" fill="#80beb6" transform="matrix(-4.16667 0 0 4.16667 1560.69 -1460.016)"/><g fill="#fff" fill-rule="nonzero"><path d="m.244-.491c-.046 0-.077.033-.077.078s.031.078.076.078c.046 0 .076-.033.076-.078s-.031-.078-.075-.078zm-.057.217v.021c.002.048-.013.09-.053.136-.043.049-.086.098-.086.171 0 .08.057.152.181.152.063 0 .121-.019.156-.041l-.029-.088c-.026.018-.066.03-.1.03-.056-.001-.083-.029-.083-.071 0-.039.025-.075.063-.12.047-.056.065-.112.061-.164l-.002-.026z" transform="matrix(59.8875 0 0 65.3529 65.55 74.76)"/><path d="m.534-.116c-.033.014-.085.024-.134.024-.149 0-.235-.094-.235-.243 0-.162.099-.248.236-.248.055 0 .1.012.132.026l.026-.098c-.025-.013-.082-.03-.163-.03-.206 0-.361.134-.361.356 0 .206.13.34.344.34.082 0 .146-.016.175-.03z" transform="matrix(59.8875 0 0 65.3529 91.18 74.76)"/><path d="m.287-.498c-.147 0-.252.098-.252.258 0 .157.107.251.244.251.124 0 .25-.08.25-.259 0-.148-.097-.25-.242-.25zm-.003.089c.084 0 .118.088.118.164 0 .099-.049.167-.119.167-.074 0-.121-.071-.121-.165 0-.081.035-.166.122-.166zm.024-.289-.087.148h.085l.122-.148z" transform="matrix(59.8875 0 0 65.3529 125.35 74.76)"/><path d="m.066 0h.12v-.288c0-.014.002-.028.006-.041.012-.033.043-.069.089-.069.057 0 .084.048.084.116v.282h.12v-.292c0-.014.002-.03.006-.041.013-.035.044-.065.086-.065.059 0 .087.048.087.129v.269h.12v-.287c0-.156-.082-.211-.162-.211-.041 0-.072.01-.1.029-.022.014-.042.034-.059.061h-.002c-.021-.054-.071-.09-.135-.09-.083 0-.127.045-.15.083h-.003l-.006-.072h-.105c.002.042.004.089.004.145z" transform="matrix(59.8875 0 0 65.3529 159.13 74.76)"/><path d="m.287-.498c-.147 0-.252.098-.252.258 0 .157.107.251.244.251.124 0 .25-.08.25-.259 0-.148-.097-.25-.242-.25zm-.003.089c.084 0 .118.088.118.164 0 .099-.049.167-.119.167-.074 0-.121-.071-.121-.165 0-.081.035-.166.122-.166z" transform="matrix(59.8875 0 0 65.3529 209.91 74.76)"/><path d="m.036-.024c.036.02.089.034.148.034.129 0 .198-.064.198-.153-.001-.072-.041-.117-.13-.148-.062-.023-.085-.037-.085-.068 0-.03.024-.052.068-.052.043 0 .083.016.103.028l.025-.086c-.029-.016-.076-.029-.13-.029-.113 0-.184.066-.184.152 0 .058.039.11.134.142.06.022.08.038.08.071 0 .032-.024.055-.078.055-.044 0-.097-.019-.124-.036z" transform="matrix(59.8875 0 0 65.3529 256.09 74.76)"/><path d="m.479-.209c.002-.011.004-.029.004-.052 0-.107-.052-.237-.21-.237-.156 0-.238.127-.238.262 0 .149.093.246.251.246.07 0 .128-.013.17-.031l-.018-.084c-.038.013-.078.022-.135.022-.079 0-.147-.038-.15-.126zm-.326-.086c.005-.05.037-.119.113-.119.082 0 .102.074.101.119z" transform="matrix(59.8875 0 0 65.3529 281.06 74.76)"/><path d="m.407-.106c-.024.01-.055.019-.097.019-.084 0-.149-.057-.149-.157-.001-.089.055-.158.149-.158.044 0 .073.009.093.019l.022-.093c-.028-.012-.074-.022-.119-.022-.171 0-.271.113-.271.259 0 .151.099.249.251.249.061 0 .112-.013.138-.025z" transform="matrix(59.8875 0 0 65.3529 324.36 74.76)"/><path d="m.287-.498c-.147 0-.252.098-.252.258 0 .157.107.251.244.251.124 0 .25-.08.25-.259 0-.148-.097-.25-.242-.25zm-.003.089c.084 0 .118.088.118.164 0 .099-.049.167-.119.167-.074 0-.121-.071-.121-.165 0-.081.035-.166.122-.166z" transform="matrix(59.8875 0 0 65.3529 350.66 74.76)"/><path d="m.066 0h.123v-.287c0-.014.002-.029.006-.039.013-.037.047-.072.096-.072.067 0 .093.053.093.123v.275h.123v-.289c0-.154-.088-.209-.173-.209-.081 0-.134.046-.156.084h-.003l-.006-.073h-.107c.002.042.004.089.004.145z" transform="matrix(59.8875 0 0 65.3529 384.44 74.76)"/><path d="m.086-.578v.091h-.069v.092h.069v.229c0 .064.012.109.039.137.023.025.06.04.106.04.038 0 .071-.006.089-.013l-.002-.093c-.014.004-.026.005-.048.005-.047 0-.063-.03-.063-.09v-.215h.117v-.092h-.117v-.125z" transform="matrix(59.8875 0 0 65.3529 418.37 74.76)"/><path d="m.444-.292c0-.107-.045-.206-.201-.206-.077 0-.14.021-.176.043l.024.08c.033-.021.083-.036.131-.036.086 0 .099.053.099.085v.008c-.18-.001-.289.062-.289.184 0 .074.055.145.153.145.064 0 .115-.027.144-.065h.003l.009.054h.111c-.006-.03-.008-.073-.008-.117zm-.12.121c0 .009 0 .018-.003.027-.012.035-.047.067-.097.067-.039 0-.07-.022-.07-.07 0-.074.083-.092.17-.091z" transform="matrix(59.8875 0 0 65.3529 439.39 74.76)"/><path d="m.507-.347c0-.067.002-.107.004-.14h-.107l-.005.065h-.002c-.023-.04-.066-.076-.141-.076-.117 0-.221.097-.221.257 0 .138.086.238.207.238.065 0 .114-.029.142-.072h.002v.042c0 .105-.06.147-.14.147-.059 0-.111-.019-.142-.037l-.027.093c.042.025.108.039.17.039.067 0 .138-.014.188-.059.051-.046.072-.119.072-.221zm-.123.134c0 .014-.001.031-.005.043-.014.045-.054.075-.1.075-.077 0-.119-.067-.119-.15 0-.099.051-.159.12-.159.052 0 .087.034.1.079.003.01.004.021.004.033z" transform="matrix(59.8875 0 0 65.3529 469.81 74.76)"/><path d="m.189 0v-.487h-.123v.487zm-.061-.69c-.041 0-.069.029-.069.067 0 .036.027.066.068.066.043 0 .07-.03.07-.066-.001-.038-.027-.067-.069-.067z" transform="matrix(59.8875 0 0 65.3529 503.87 74.76)"/><path d="m.444-.292c0-.107-.045-.206-.201-.206-.077 0-.14.021-.176.043l.024.08c.033-.021.083-.036.131-.036.086 0 .099.053.099.085v.008c-.18-.001-.289.062-.289.184 0 .074.055.145.153.145.064 0 .115-.027.144-.065h.003l.009.054h.111c-.006-.03-.008-.073-.008-.117zm-.12.121c0 .009 0 .018-.003.027-.012.035-.047.067-.097.067-.039 0-.07-.022-.07-.07 0-.074.083-.092.17-.091z" transform="matrix(59.8875 0 0 65.3529 519.2 74.76)"/><path d="m.248-.206v-.022c-.002-.048.013-.089.053-.135.043-.049.086-.098.086-.171 0-.08-.057-.152-.181-.152-.064 0-.121.018-.157.041l.03.088c.025-.019.065-.03.1-.03.056.001.083.029.083.071 0 .039-.026.074-.064.12-.047.056-.065.111-.06.164l.001.026zm-.058.217c.047 0 .077-.034.077-.078-.001-.046-.031-.078-.076-.078-.044 0-.076.032-.076.078 0 .044.031.078.075.078z" transform="matrix(59.8875 0 0 65.3529 549.62 74.76)"/></g></svg>

<?xml version="1.0" encoding="UTF-8" standalone="no"?>
<!DOCTYPE svg PUBLIC "-//W3C//DTD SVG 1.1//EN" "http://www.w3.org/Graphics/SVG/1.1/DTD/svg11.dtd">
<svg width="100%" height="100%" viewBox="0 0 622 104" version="1.1" xmlns="http://www.w3.org/2000/svg" xmlns:xlink="http://www.w3.org/1999/xlink" xml:space="preserve" xmlns:serif="http://www.serif.com/" style="fill-rule:evenodd;clip-rule:evenodd;stroke-linejoin:round;stroke-miterlimit:2;">
    <g transform="matrix(1,0,0,1,-938,-3000)">
        <g transform="matrix(1,0,0,1,0,1374.98)">
            <g transform="matrix(-4.16667,0,0,4.16667,2498.69,165.004)">
                <rect x="225.343" y="350.566" width="149" height="24.621" style="fill:rgb(128,190,182);"/>
            </g>
            <g transform="matrix(59.8875,0,0,65.3529,1003.55,1699.78)">
                <path d="M0.244,-0.491C0.198,-0.491 0.167,-0.458 0.167,-0.413C0.167,-0.368 0.198,-0.335 0.243,-0.335C0.289,-0.335 0.319,-0.368 0.319,-0.413C0.319,-0.458 0.288,-0.491 0.244,-0.491ZM0.187,-0.274L0.187,-0.253C0.189,-0.205 0.174,-0.163 0.134,-0.117C0.091,-0.068 0.048,-0.019 0.048,0.054C0.048,0.134 0.105,0.206 0.229,0.206C0.292,0.206 0.35,0.187 0.385,0.165L0.356,0.077C0.33,0.095 0.29,0.107 0.256,0.107C0.2,0.106 0.173,0.078 0.173,0.036C0.173,-0.003 0.198,-0.039 0.236,-0.084C0.283,-0.14 0.301,-0.196 0.297,-0.248L0.295,-0.274L0.187,-0.274Z" style="fill:white;fill-rule:nonzero;"/>
            </g>
            <g transform="matrix(59.8875,0,0,65.3529,1029.18,1699.78)">
                <path d="M0.534,-0.116C0.501,-0.102 0.449,-0.092 0.4,-0.092C0.251,-0.092 0.165,-0.186 0.165,-0.335C0.165,-0.497 0.264,-0.583 0.401,-0.583C0.456,-0.583 0.501,-0.571 0.533,-0.557L0.559,-0.655C0.534,-0.668 0.477,-0.685 0.396,-0.685C0.19,-0.685 0.035,-0.551 0.035,-0.329C0.035,-0.123 0.165,0.011 0.379,0.011C0.461,0.011 0.525,-0.005 0.554,-0.019L0.534,-0.116Z" style="fill:white;fill-rule:nonzero;"/>
            </g>
            <g transform="matrix(59.8875,0,0,65.3529,1063.35,1699.78)">
                <path d="M0.287,-0.498C0.14,-0.498 0.035,-0.4 0.035,-0.24C0.035,-0.083 0.142,0.011 0.279,0.011C0.403,0.011 0.529,-0.069 0.529,-0.248C0.529,-0.396 0.432,-0.498 0.287,-0.498ZM0.284,-0.409C0.368,-0.409 0.402,-0.321 0.402,-0.245C0.402,-0.146 0.353,-0.078 0.283,-0.078C0.209,-0.078 0.162,-0.149 0.162,-0.243C0.162,-0.324 0.197,-0.409 0.284,-0.409ZM0.308,-0.698L0.221,-0.55L0.306,-0.55L0.428,-0.698L0.308,-0.698Z" style="fill:white;fill-rule:nonzero;"/>
            </g>
            <g transform="matrix(59.8875,0,0,65.3529,1097.13,1699.78)">
                <path d="M0.066,0L0.186,0L0.186,-0.288C0.186,-0.302 0.188,-0.316 0.192,-0.329C0.204,-0.362 0.235,-0.398 0.281,-0.398C0.338,-0.398 0.365,-0.35 0.365,-0.282L0.365,0L0.485,0L0.485,-0.292C0.485,-0.306 0.487,-0.322 0.491,-0.333C0.504,-0.368 0.535,-0.398 0.577,-0.398C0.636,-0.398 0.664,-0.35 0.664,-0.269L0.664,0L0.784,0L0.784,-0.287C0.784,-0.443 0.702,-0.498 0.622,-0.498C0.581,-0.498 0.55,-0.488 0.522,-0.469C0.5,-0.455 0.48,-0.435 0.463,-0.408L0.461,-0.408C0.44,-0.462 0.39,-0.498 0.326,-0.498C0.243,-0.498 0.199,-0.453 0.176,-0.415L0.173,-0.415L0.167,-0.487L0.062,-0.487C0.064,-0.445 0.066,-0.398 0.066,-0.342L0.066,0Z" style="fill:white;fill-rule:nonzero;"/>
            </g>
            <g transform="matrix(59.8875,0,0,65.3529,1147.91,1699.78)">
                <path d="M0.287,-0.498C0.14,-0.498 0.035,-0.4 0.035,-0.24C0.035,-0.083 0.142,0.011 0.279,0.011C0.403,0.011 0.529,-0.069 0.529,-0.248C0.529,-0.396 0.432,-0.498 0.287,-0.498ZM0.284,-0.409C0.368,-0.409 0.402,-0.321 0.402,-0.245C0.402,-0.146 0.353,-0.078 0.283,-0.078C0.209,-0.078 0.162,-0.149 0.162,-0.243C0.162,-0.324 0.197,-0.409 0.284,-0.409Z" style="fill:white;fill-rule:nonzero;"/>
            </g>
            <g transform="matrix(59.8875,0,0,65.3529,1194.09,1699.78)">
                <path d="M0.036,-0.024C0.072,-0.004 0.125,0.01 0.184,0.01C0.313,0.01 0.382,-0.054 0.382,-0.143C0.381,-0.215 0.341,-0.26 0.252,-0.291C0.19,-0.314 0.167,-0.328 0.167,-0.359C0.167,-0.389 0.191,-0.411 0.235,-0.411C0.278,-0.411 0.318,-0.395 0.338,-0.383L0.363,-0.469C0.334,-0.485 0.287,-0.498 0.233,-0.498C0.12,-0.498 0.049,-0.432 0.049,-0.346C0.049,-0.288 0.088,-0.236 0.183,-0.204C0.243,-0.182 0.263,-0.166 0.263,-0.133C0.263,-0.101 0.239,-0.078 0.185,-0.078C0.141,-0.078 0.088,-0.097 0.061,-0.114L0.036,-0.024Z" style="fill:white;fill-rule:nonzero;"/>
            </g>
            <g transform="matrix(59.8875,0,0,65.3529,1219.06,1699.78)">
                <path d="M0.479,-0.209C0.481,-0.22 0.483,-0.238 0.483,-0.261C0.483,-0.368 0.431,-0.498 0.273,-0.498C0.117,-0.498 0.035,-0.371 0.035,-0.236C0.035,-0.087 0.128,0.01 0.286,0.01C0.356,0.01 0.414,-0.003 0.456,-0.021L0.438,-0.105C0.4,-0.092 0.36,-0.083 0.303,-0.083C0.224,-0.083 0.156,-0.121 0.153,-0.209L0.479,-0.209ZM0.153,-0.295C0.158,-0.345 0.19,-0.414 0.266,-0.414C0.348,-0.414 0.368,-0.34 0.367,-0.295L0.153,-0.295Z" style="fill:white;fill-rule:nonzero;"/>
            </g>
            <g transform="matrix(59.8875,0,0,65.3529,1262.36,1699.78)">
                <path d="M0.407,-0.106C0.383,-0.096 0.352,-0.087 0.31,-0.087C0.226,-0.087 0.161,-0.144 0.161,-0.244C0.16,-0.333 0.216,-0.402 0.31,-0.402C0.354,-0.402 0.383,-0.393 0.403,-0.383L0.425,-0.476C0.397,-0.488 0.351,-0.498 0.306,-0.498C0.135,-0.498 0.035,-0.385 0.035,-0.239C0.035,-0.088 0.134,0.01 0.286,0.01C0.347,0.01 0.398,-0.003 0.424,-0.015L0.407,-0.106Z" style="fill:white;fill-rule:nonzero;"/>
            </g>
            <g transform="matrix(59.8875,0,0,65.3529,1288.66,1699.78)">
                <path d="M0.287,-0.498C0.14,-0.498 0.035,-0.4 0.035,-0.24C0.035,-0.083 0.142,0.011 0.279,0.011C0.403,0.011 0.529,-0.069 0.529,-0.248C0.529,-0.396 0.432,-0.498 0.287,-0.498ZM0.284,-0.409C0.368,-0.409 0.402,-0.321 0.402,-0.245C0.402,-0.146 0.353,-0.078 0.283,-0.078C0.209,-0.078 0.162,-0.149 0.162,-0.243C0.162,-0.324 0.197,-0.409 0.284,-0.409Z" style="fill:white;fill-rule:nonzero;"/>
            </g>
            <g transform="matrix(59.8875,0,0,65.3529,1322.44,1699.78)">
                <path d="M0.066,0L0.189,0L0.189,-0.287C0.189,-0.301 0.191,-0.316 0.195,-0.326C0.208,-0.363 0.242,-0.398 0.291,-0.398C0.358,-0.398 0.384,-0.345 0.384,-0.275L0.384,0L0.507,0L0.507,-0.289C0.507,-0.443 0.419,-0.498 0.334,-0.498C0.253,-0.498 0.2,-0.452 0.178,-0.414L0.175,-0.414L0.169,-0.487L0.062,-0.487C0.064,-0.445 0.066,-0.398 0.066,-0.342L0.066,0Z" style="fill:white;fill-rule:nonzero;"/>
            </g>
            <g transform="matrix(59.8875,0,0,65.3529,1356.37,1699.78)">
                <path d="M0.086,-0.578L0.086,-0.487L0.017,-0.487L0.017,-0.395L0.086,-0.395L0.086,-0.166C0.086,-0.102 0.098,-0.057 0.125,-0.029C0.148,-0.004 0.185,0.011 0.231,0.011C0.269,0.011 0.302,0.005 0.32,-0.002L0.318,-0.095C0.304,-0.091 0.292,-0.09 0.27,-0.09C0.223,-0.09 0.207,-0.12 0.207,-0.18L0.207,-0.395L0.324,-0.395L0.324,-0.487L0.207,-0.487L0.207,-0.612L0.086,-0.578Z" style="fill:white;fill-rule:nonzero;"/>
            </g>
            <g transform="matrix(59.8875,0,0,65.3529,1377.39,1699.78)">
                <path d="M0.444,-0.292C0.444,-0.399 0.399,-0.498 0.243,-0.498C0.166,-0.498 0.103,-0.477 0.067,-0.455L0.091,-0.375C0.124,-0.396 0.174,-0.411 0.222,-0.411C0.308,-0.411 0.321,-0.358 0.321,-0.326L0.321,-0.318C0.141,-0.319 0.032,-0.256 0.032,-0.134C0.032,-0.06 0.087,0.011 0.185,0.011C0.249,0.011 0.3,-0.016 0.329,-0.054L0.332,-0.054L0.341,0L0.452,0C0.446,-0.03 0.444,-0.073 0.444,-0.117L0.444,-0.292ZM0.324,-0.171C0.324,-0.162 0.324,-0.153 0.321,-0.144C0.309,-0.109 0.274,-0.077 0.224,-0.077C0.185,-0.077 0.154,-0.099 0.154,-0.147C0.154,-0.221 0.237,-0.239 0.324,-0.238L0.324,-0.171Z" style="fill:white;fill-rule:nonzero;"/>
            </g>
            <g transform="matrix(59.8875,0,0,65.3529,1407.81,1699.78)">
                <path d="M0.507,-0.347C0.507,-0.414 0.509,-0.454 0.511,-0.487L0.404,-0.487L0.399,-0.422L0.397,-0.422C0.374,-0.462 0.331,-0.498 0.256,-0.498C0.139,-0.498 0.035,-0.401 0.035,-0.241C0.035,-0.103 0.121,-0.003 0.242,-0.003C0.307,-0.003 0.356,-0.032 0.384,-0.075L0.386,-0.075L0.386,-0.033C0.386,0.072 0.326,0.114 0.246,0.114C0.187,0.114 0.135,0.095 0.104,0.077L0.077,0.17C0.119,0.195 0.185,0.209 0.247,0.209C0.314,0.209 0.385,0.195 0.435,0.15C0.486,0.104 0.507,0.031 0.507,-0.071L0.507,-0.347ZM0.384,-0.213C0.384,-0.199 0.383,-0.182 0.379,-0.17C0.365,-0.125 0.325,-0.095 0.279,-0.095C0.202,-0.095 0.16,-0.162 0.16,-0.245C0.16,-0.344 0.211,-0.404 0.28,-0.404C0.332,-0.404 0.367,-0.37 0.38,-0.325C0.383,-0.315 0.384,-0.304 0.384,-0.292L0.384,-0.213Z" style="fill:white;fill-rule:nonzero;"/>
            </g>
            <g transform="matrix(59.8875,0,0,65.3529,1441.87,1699.78)">
                <path d="M0.189,0L0.189,-0.487L0.066,-0.487L0.066,0L0.189,0ZM0.128,-0.69C0.087,-0.69 0.059,-0.661 0.059,-0.623C0.059,-0.587 0.086,-0.557 0.127,-0.557C0.17,-0.557 0.197,-0.587 0.197,-0.623C0.196,-0.661 0.17,-0.69 0.128,-0.69Z" style="fill:white;fill-rule:nonzero;"/>
            </g>
            <g transform="matrix(59.8875,0,0,65.3529,1457.2,1699.78)">
                <path d="M0.444,-0.292C0.444,-0.399 0.399,-0.498 0.243,-0.498C0.166,-0.498 0.103,-0.477 0.067,-0.455L0.091,-0.375C0.124,-0.396 0.174,-0.411 0.222,-0.411C0.308,-0.411 0.321,-0.358 0.321,-0.326L0.321,-0.318C0.141,-0.319 0.032,-0.256 0.032,-0.134C0.032,-0.06 0.087,0.011 0.185,0.011C0.249,0.011 0.3,-0.016 0.329,-0.054L0.332,-0.054L0.341,0L0.452,0C0.446,-0.03 0.444,-0.073 0.444,-0.117L0.444,-0.292ZM0.324,-0.171C0.324,-0.162 0.324,-0.153 0.321,-0.144C0.309,-0.109 0.274,-0.077 0.224,-0.077C0.185,-0.077 0.154,-0.099 0.154,-0.147C0.154,-0.221 0.237,-0.239 0.324,-0.238L0.324,-0.171Z" style="fill:white;fill-rule:nonzero;"/>
            </g>
            <g transform="matrix(59.8875,0,0,65.3529,1487.62,1699.78)">
                <path d="M0.248,-0.206L0.248,-0.228C0.246,-0.276 0.261,-0.317 0.301,-0.363C0.344,-0.412 0.387,-0.461 0.387,-0.534C0.387,-0.614 0.33,-0.686 0.206,-0.686C0.142,-0.686 0.085,-0.668 0.049,-0.645L0.079,-0.557C0.104,-0.576 0.144,-0.587 0.179,-0.587C0.235,-0.586 0.262,-0.558 0.262,-0.516C0.262,-0.477 0.236,-0.442 0.198,-0.396C0.151,-0.34 0.133,-0.285 0.138,-0.232L0.139,-0.206L0.248,-0.206ZM0.19,0.011C0.237,0.011 0.267,-0.023 0.267,-0.067C0.266,-0.113 0.236,-0.145 0.191,-0.145C0.147,-0.145 0.115,-0.113 0.115,-0.067C0.115,-0.023 0.146,0.011 0.19,0.011Z" style="fill:white;fill-rule:nonzero;"/>
            </g>
        </g>
    </g>
</svg>
